X:1
T:Se tu m'ami mia vita
T:Enrico Radesca di Foggia
T:Source  : Secondo Libro delle canzonette, madrigali et arie alla Romana a due voci--- Milano---Herede di S Tini et F Lomazzo---1606 Editor : André Vierendeels (14/11/16).
T:Notes : Original clefs : C1, F4 "Per cantar e suonar con il chitarone o spinetta"
T:Se tu m'ami mia vita
T:©
T:©
T:©
Z:©
%%score 1 2
L:1/8
Q:1/4=110
M:4/4
K:C
V:1 treble nm="Soprano" snm="S"
V:2 bass nm="MusicXML Part"
V:1
 B2 c2 d4- | d4 c2 B2 | d4 A2 D2 | E2 ^F2 G4- | G2 A2 A4 | G8 | z2 B2 d4- | d2 d2 c2 B2 | %8
w: Se tu m'a-|* mi mia|vi- ta, t'am'|e t'ho- no-|* ro'an- chi-|o,|s'io son|_ la spe- me|
 d4 z2 D2 | E2 G2 A4 | G8 :: e2 e2 d2 dc | B2 B2 e2 e2 | d2 dc B4 | A8 | B4 B2 c2 | d4 c4 | B4 A4 | %18
w: tua, tu'l|mio de- si-|o,|par' in noi è l'a-|mo- re, par' in|noi è l'ar- do-|re,|dun- que con-|vien che|l'as- pra|
 G8- | G4 G4 | A4 A2 A2 | d4 c4 | B4 B4 | B2 B2 B2 B2 | ^c2 d4 c2 | d4 d4 | B2 c2 d2 B2 | c4 B4 | %28
w: tua|_ par-|ti- ta, pian-|giam con-|cor- di|ch'o- gni ben ci-|to- * *|glie, se'n|par vo- ler, fian|pa- ri'an-|
 A4 G4 | ^F4 G4 | A8 | G4 D4 | E2 ^F2 G2 A2 | ^F4 d4- | d4 c4- | c4 B4 | A8 | G8 :| %38
w: cor le|do- *||glie, s'en|par vo- ler fian|pa- ri'an-|* chor|_ le|do-|glie.|
V:2
"^BC""^Bass" G,2 A,2 G,4- | G,4 E,2 E,2 | D,4 D,2 B,,2 | C,2 D,2 E,4 | C,4 D,4 |"^B" G,,8 | %6
w: Se tu m'a-|* mi mia|vi- ta, t'am'|e t'ho- no-|ro'an- chi-|o,|
 z2 G,2 G,4- | G,2 F,2 E,2 E,2 | D,4 B,,4 | C,2 E,2 D,4 | G,,8 ::"^B" C,2 C,2 G,2 G,A, | %12
w: s'io son|_ la spe- me|tua, tu'l|mio de- si-|o,|par' in noi è l'a-|
 E,2 E,2 C,2 C,2 | G,2 G,A, E,4 | A,8 | G,4 G,2 A,2 |"^B" G,8- | G,4 F,4 | E,4 D,4 | C,4 E,4 | %20
w: mo- re, par' in|noi è l'ar- do-|re,|dun- que con-|vien|_ che|l'as- pra|tua par-|
 D,4 D,2 D,2 | D,4 A,,4 |"^B" E,4 E,4 | E,2 E,2 E,2 E,2 | A,8 | D,8 | z4 G,4 | %27
w: ti- ta, pian-|giam con-|cor- di|ch'o- gni ben ci-|to-|glie,|se'n|
"^B" E,2 F,2 G,2 E,2 | F,4 E,4 | D,4 B,,4 | C,4 D,4 | G,,4 B,,4 | C,2 D,2 E,2 C,2 |"^B" D,4 B,,4 | %34
w: par vo- ler, fian|pa- ri'an-|cor le|do- *|glie, s'en|par vo- ler fian|pa- ri'an|
 C,8 | D,8 | D,8 | G,,8 :| %38
w: chor|le|do-|glie.|

